X: 43
T: ROND PALUDIER
M: 4/4
L: 1/8
Q:1/4=120
K:D 
|A3/2A/2BA GFG3/2 z/2 |A/2A/2ABA GFG3/2 z/2 |A3/2A/2BA GFG3/2 z/2 |A/2A/
2ABA GFG3/2 z/2 |
DDGF EDGG|ABAG E3/2 z/2 D3/2 z/2 |DDGF EDGG|ABAG E3/2 z/2 D3/2|
